src/images/phone.svg

<svg width="45" height="35" viewBox="0 0 45 35" fill="none" xmlns="http://www.w3.org/2000/svg">
<rect x="0.486572" width="43.6558" height="35" rx="4" fill="#89F2A6" fill-opacity="0.66"/>
<path d="M33.2285 22.0517V25.293C33.2286 25.5251 33.1189 25.7486 32.9216 25.9183C32.7243 26.0881 32.4539 26.1916 32.1652 26.2078C31.6655 26.2353 31.2573 26.25 30.9418 26.25C20.8378 26.25 12.6479 19.6839 12.6479 11.5833C12.6479 11.3303 12.665 11.0031 12.7005 10.6025C12.7207 10.371 12.8498 10.1543 13.0616 9.99604C13.2733 9.83782 13.5521 9.7499 13.8416 9.75H17.8845C18.0263 9.74989 18.1631 9.79204 18.2684 9.86827C18.3736 9.9445 18.4397 10.0494 18.4539 10.1625C18.4802 10.3733 18.5042 10.5411 18.5271 10.6685C18.7543 11.9398 19.22 13.1763 19.9083 14.3361C20.0169 14.5194 19.946 14.7385 19.7402 14.8558L17.2728 16.2693C18.7814 19.0876 21.5828 21.3335 25.098 22.543L26.8588 20.5685C26.9308 20.4878 27.0358 20.43 27.1555 20.405C27.2752 20.3801 27.4021 20.3896 27.5139 20.4319C28.9603 20.9827 30.5022 21.3551 32.0874 21.5365C32.2463 21.5548 32.4556 21.575 32.7163 21.5952C32.8572 21.6067 32.9877 21.6599 33.0825 21.7442C33.1774 21.8285 33.2298 21.9381 33.2296 22.0517H33.2285Z" fill="#00C938"/>
</svg>

<svg xmlns="http://www.w3.org/2000/svg" width="45" height="35" fill="none"><rect width="43.656" height="35" x=".487" fill="#89F2A6" fill-opacity=".66" rx="4"/><path fill="#00C938" d="M33.228 22.052v3.241c0 .232-.11.456-.306.625-.198.17-.468.274-.757.29-.5.027-.908.042-1.223.042-10.104 0-18.294-6.566-18.294-14.667 0-.253.017-.58.053-.98a.859.859 0 0 1 .36-.607 1.31 1.31 0 0 1 .78-.246h4.043c.142 0 .28.042.384.118a.435.435 0 0 1 .186.294c.026.211.05.38.073.506a10.961 10.961 0 0 0 1.381 3.668c.109.183.038.402-.168.52l-2.467 1.413c1.508 2.819 4.31 5.065 7.825 6.274l1.76-1.974a.546.546 0 0 1 .297-.164.65.65 0 0 1 .359.027 18.913 18.913 0 0 0 5.202 1.163.63.63 0 0 1 .367.15.412.412 0 0 1 .147.307h-.002Z"/></svg>
